icon-themes/sifr_svg/cmd/lc_outlineexpandall.svg

<svg viewBox="0 0 24 24" xmlns="http://www.w3.org/2000/svg"><g fill="#555753"><path d="m13 2v2h9v-2zm0 10v2h9v-2zm-11 4v.412109.587891c0 .30945.0903.55232.28125.75.769594 1.016078 3.3210991 3.524849 3.9394531 4.25h1.6152344l3.8828125-4.25c.19095-.19768.28125-.44055.28125-.75v-.587891-.412109h-1c-.256624-.01174-.528462.12983-.71875.3125l-.28125.371094-3 3.316406-3-3.316406-.28125-.371094c-.190301-.18267-.494728-.3125-.71875-.3125z"/><path d="m13 6v2h9v-2zm1 10v2h8v-2zm-1 4v2h9v-2z" opacity=".35"/></g></svg>

<svg xmlns="http://www.w3.org/2000/svg" viewBox="0 0 24 24">
  <path
     style="fill:#555753"
     d="M 13 2 L 13 4 L 22 4 L 22 2 L 13 2 z M 13 12 L 13 14 L 22 14 L 22 12 L 13 12 z M 2 16 L 2 16.412109 L 2 17 C 2 17.30945 2.0903 17.55232 2.28125 17.75 C 3.050844 18.766078 5.6023491 21.274849 6.2207031 22 L 7.8359375 22 L 11.71875 17.75 C 11.9097 17.55232 12 17.30945 12 17 L 12 16.412109 L 12 16 L 11 16 C 10.743376 15.98826 10.471538 16.12983 10.28125 16.3125 L 10 16.683594 L 7 20 L 4 16.683594 L 3.71875 16.3125 C 3.528449 16.12983 3.224022 16 3 16 L 2 16 z "
     />
  <path
     style="opacity:0.35;fill:#555753"
     d="m 13,6 v 2 h 9 V 6 Z m 1,10 v 2 h 8 v -2 z m -1,4 v 2 h 9 v -2 z"
     />
</svg>
